packages/IcoMoon/src/SoundcloudIcon/index.svg

<svg version="1.1" xmlns="http://www.w3.org/2000/svg" width="16" height="16" viewBox="0 0 16 16">
<path d="M13.937 8.034c-0.283 0-0.552 0.055-0.798 0.154-0.164-1.787-1.723-3.188-3.625-3.188-0.465 0-0.917 0.088-1.317 0.237-0.156 0.058-0.197 0.117-0.197 0.233v6.292c0 0.121 0.098 0.222 0.221 0.234 0.005 0.001 5.68 0.003 5.717 0.003 1.139 0 2.062-0.888 2.062-1.983s-0.924-1.983-2.063-1.983zM6.25 12h0.5l0.25-3.503-0.25-3.497h-0.5l-0.25 3.497zM4.75 12h-0.5l-0.25-2.543 0.25-2.457h0.5l0.25 2.5zM2.25 12h0.5l0.25-2-0.25-2h-0.5l-0.25 2zM0.25 11h0.5l0.25-1-0.25-1h-0.5l-0.25 1z"></path>
</svg>

<svg xmlns="http://www.w3.org/2000/svg" viewBox="0 0 16 16">
  <path d="M13.937 8.034c-.283 0-.552.055-.798.154C12.975 6.401 11.416 5 9.514 5c-.465 0-.917.088-1.317.237-.156.058-.197.117-.197.233v6.292c0 .121.098.222.221.234l5.717.003c1.139 0 2.062-.888 2.062-1.983s-.924-1.983-2.063-1.983zM6.25 12h.5L7 8.497 6.75 5h-.5L6 8.497zm-1.5 0h-.5L4 9.457 4.25 7h.5L5 9.5zm-2.5 0h.5L3 10l-.25-2h-.5L2 10zm-2-1h.5L1 10 .75 9h-.5L0 10z"/>
</svg>
